X: 08024
T: COUSIN JIMMY'S JIG
C: Bob McQuillen 21 Feb 91
B: Bob's Note Book 8 #24
%R: jig
Z: 2021 John Chambers <jc:trillian.mit.edu>
M: 6/8
L: 1/8
K: G
B2d \
| g2g dBG | ABA G2B | ABc Bcd | edB def |\
| g2g dBd | gag e2e | dBG ABA | G3 :|
|: B2d \
| ABc Bcd | ABc B2d | cde dge | dBG A2G |\
| ABc Bcd | cde dBd | eag fga | g3 :|
%%begintext align
%% This is the
%% third tune, and the last one in this group. It is for my
%% dear cousin Jimmy Martinez. Neither he nor Eddy will
%% ever hear their tunes, since they are both gone now, but
%% the bond between us all still survives; such is the
%% power of love. I will play these for you some day, Cathy!
%%endtext

%%sep 1 1 500

%%sep 1 1 500

